build/system/PrintOutline.svg

<svg xmlns="http://www.w3.org/2000/svg" fill="none" viewBox="0 0 24 24" focusable="false"><path d="M0 0H24V24H0z"/><path fill="#74767B" fill-rule="evenodd" d="M6.85 4.95586C6.85 3.8789 7.72304 3.00586 8.8 3.00586L15.2 3.00586C16.277 3.00586 17.15 3.8789 17.15 4.95586L17.15 6.05457C17.15 6.41356 16.859 6.70457 16.5 6.70457C16.141 6.70457 15.85 6.41356 15.85 6.05457L15.85 4.95586C15.85 4.59688 15.559 4.30586 15.2 4.30586L8.8 4.30586C8.44102 4.30586 8.15 4.59687 8.15 4.95586L8.15 6.05457C8.15 6.41356 7.85898 6.70457 7.5 6.70457C7.14102 6.70457 6.85 6.41356 6.85 6.05457L6.85 4.95586ZM15.7 21C16.418 21 17 20.4179 17 19.7L17 18L18 18C19.6569 18 21 16.6568 21 15L21 11C21 9.34312 19.6569 7.99998 18 7.99998L6 7.99998C4.34315 7.99998 3 9.34312 3 11L3 15C3 16.6568 4.34315 18 6 18L7 18L7 19.7C7 20.4179 7.58203 21 8.3 21L15.7 21ZM18 16.7L17 16.7L17 13.7C17 13.3134 16.6866 13 16.3 13L7.7 13C7.3134 13 7 13.3134 7 13.7L7 16.7L6 16.7C5.06112 16.7 4.3 15.9389 4.3 15L4.3 11C4.3 10.0611 5.06112 9.29998 6 9.29998L18 9.29998C18.9389 9.29998 19.7 10.0611 19.7 11L19.7 15C19.7 15.9389 18.9389 16.7 18 16.7ZM18.6957 11.4808C18.6957 12.0331 18.248 12.4808 17.6957 12.4808C17.1434 12.4808 16.6957 12.0331 16.6957 11.4808C16.6957 10.9285 17.1434 10.4808 17.6957 10.4808C18.248 10.4808 18.6957 10.9285 18.6957 11.4808ZM8.3 19.7L15.7 19.7L15.7 14.3L8.3 14.3L8.3 19.7Z"/></svg>

<svg xmlns="http://www.w3.org/2000/svg" fill="none" viewBox="0 0 24 24" focusable="false"><path fill="#74767B" fill-rule="evenodd" d="M8.79 3c-1.07 0-1.94.87-1.94 1.95v1.1c0 .36.29.65.65.65.35 0 .64-.29.64-.65v-1.1c0-.36.3-.65.65-.65h6.41c.35 0 .65.29.65.65v1.1c0 .36.29.65.65.65.35 0 .64-.29.64-.65v-1.1c0-1.08-.87-1.95-1.94-1.95zm6.91 18c.71 0 1.3-.59 1.3-1.3V18h1c1.65 0 3-1.35 3-3v-4a3.01 3.01 0 0 0-3-3.01H6c-1.66 0-3 1.35-3 3.01v4c0 1.65 1.34 3 3 3h1v1.7c0 .71.58 1.3 1.29 1.3zm2.3-4.3h-1v-3c0-.39-.32-.7-.71-.7H7.7c-.39 0-.7.31-.7.7v3H6c-.94 0-1.71-.77-1.71-1.7v-4c0-.94.77-1.71 1.71-1.71h12c.93 0 1.7.77 1.7 1.71v4c0 .93-.77 1.7-1.7 1.7m.69-5.22c0 .55-.45 1-1 1s-1-.45-1-1c0-.56.45-1 1-1s1 .44 1 1M8.29 19.7h7.41v-5.4H8.29z"/></svg>
